X:1
T:Daghela avanti un passo
T:Paolo Giorza (1832 - 1914)
T:POLKA
T:Daghela avanti un passo
T:Scritto con MuseScore, un software libero e gratuito: http://musescore.org/it  -  Pubblico dominio
T:Scritto con MuseScore, un software libero e gratuito: http://musescore.org/it  -  Pubblico dominio
T:Scritto con MuseScore, un software libero e gratuito: http://musescore.org/it  -  Pubblico dominio
T:Scritto con MuseScore, un software libero e gratuito: http://musescore.org/it  -  Pubblico dominio
T:Scritto con MuseScore, un software libero e gratuito: http://musescore.org/it  -  Pubblico dominio
C:Paolo Giorza (1832 - 1914)
Z:Scritto con MuseScore, un software libero e gratuito: http://musescore.org/it  -  Pubblico dominio
%%score { 1 | 2 }
L:1/8
M:2/4
K:F
V:1 treble nm="Piano" snm="Pno."
V:2 bass 
V:1
"^Introduzione." [Geg][Geg]/[Gdg]/ [Geg][Afa] | [Bgb][Geg] z!ff! [cc'] | [^c^c'][dd'][^d^d'][ee'] | %3
 [ff'] z z c' | %4
!f!"^Rataplan! Tambur io sento che mi chiama alla bandiera"{/c'd'e'} !>![ff']!p! [fa][fa][fa] | %5
 [ac'][gb] [gb]/[^fa]/[gb]/ z/ | ([ec'e']>[bd']) ([ec'e']>[bd']) | ((([cac']2 [Afa])))[cc'] | %8
!f!{/c'd'e'} !>![ff']!p! [fa][fa][fa] | [ac'][gb] [gb]/[^fa]/[gb]/ z/ | [ec'e']>[bd'] [gb][eg] |1 %11
 faf[cc'] :|2 f z!p!"^Oh!" [ec'e']"^la"[fd'f'] |: %13
"^bella gigogin"!8va(! [ge'g'][f'a']/[e'g']/ [ec'e'][fd'f'] | [ge'g'] z [c'e'c''][c'e'c''] | %15
 [=bg'=b'][a'c'']/[g'b']/ [af'a'][af'a'] | [ge'g'][ec'e']/ z/ [ec'e'][fd'f'] | %17
 [ge'g'][f'a']/[e'g']/ [ec'e'][fd'f'] | [ge'g'] z [c'e'c''][c'e'c''] | %19
 [=bg'=b']a'/g'/ [e'g'e''][d'f'd'']!8va)! | [cec'] [cc'] [cc'][cc'] | %21
!p!"^Di quindici anni" [cc']2 [ff']>[ee'] | %22
"^faceva all'amore""^faceva all'amore" ((([dd']2 [cc']>))[Bb]) | ([Aa]2 [dd']>[cc'] | %24
 (([cc']2 [Bb]))) z | %25
"^Daghela avanti un passo""^Daghelaavanti un passo" !>![EG]!>![EG]/!>![EG]/ !>![EG]!>![FA] | %26
 !>![GB]!>![EG] z [cc'] | ([ec'e']>[bd']) ([ec'e']>[bd']) | ((([cac']2 [Afa]))) z | %29
 [cc']2 [ff']>[ee'] | ((([dd']2 [cc']>))[Bb]) | ([Aa]2 [dd']>[cc'] | (([Ac']2 [Bb]))) z | %33
 !>![EG]!>![EG]/!>![EG]/ !>![EG]!>![FA] | !>![GB]!>![EG] z [cc'] | ([ec'e']>[bd'] [gb]>[eg]) |1 %36
 f z [ec'e'][fd'f'] :|2 f=b/d'/ c'[fg'] | [ff']=b/d'/ c'[fg'] | ([ff']e'/g'/) ([ff']e'/g'/) | %40
 [ff']f/f/ f[fd'f'] ||[K:Bb][M:2/4]"^La ven, la ven, la ven a la finestra" [dbd'] F/F/ B[fd'f'] | %42
 [dbd'] F/F/ B[fd'f'] | [dbd'][c'e']/[bd']/ [^ca^c'][dbd'] | ((([fd'f']2 [ec'e'])))[ec'e'] | %45
 [dac'] F/F/ B[fc'e'] | [cac'] F/F/ A[ff'] |{/f'} [aa'][aa']{/e'} [gg'][gg'] | %48
 (((([fd'f']2 [dbd']))))[fd'f'] | [dbd'] F/F/ B[fd'f'] | [dbd'] F/F/ B[fd'f'] | %51
 [dbd'][c'e']/[bd']/ [^ca^c'][dbd'] | ((([fd'f']2 [ec'e'])))[ec'e'] | [cac'] F/F/ B[ec'e'] | %54
 [cac'] F/F/ A[ff'] | e'/d'/c'/d'/ e'/f'/g'/a'/ |1 [bb'][aa'][bb'] [fd'f'] :|2 %57
 !>![bb']!>![aa']!>![bb']!f!b/c'/ |: [dd'][cd']/[dd']/ [dd'][dd'] | [dd'][Aa] z a/c'/ | %60
 b/a/g/^f/ gb | a^fd [dd']/[ee']/ | [ff'][ff']/[ff']/ [ff'][ff'] | [ff'][cc'] z c'/e'/ | %64
 _d'/c'/b/a/ bd' | [ff'] z"^Le baciai, le baciai il bel visetto" f>f | (f2 a>g | %67
 g/f/e/) z/ (e/d/c/) z/ | d !>![FB]/!>![FB]/ !>![FB]!>![FB] | !>![DFB] z f>f | (f2 a>g | %71
 g/f/e/) z/ (e/d/c/) z/ | d !>![FB]/!>![FB]/ !>![FB]!>![FB] | !>![DFB] z f>f | (f2 d>b) | %75
 ba/b/ c'b | g !>![Gc]/!>![Gc]/ !>![Gc]!>![Gc] | !>![Gc] ([Gg] [Aa][Bb]) | [Bb] (def) | ag ec | %80
 BA/B/ dc |1 Bd B(b/c'/) :|2 Bd B z |] %83
V:2
 [CE][CE]/[CE]/ [CE][DF] | [CG][CE] z [C,E,G,C] | [C,E,G,C][C,E,G,C] [C,E,G,C][C,E,G,C] | %3
 [F,,F,][A,CF]/[A,CF]/ [A,CF][A,CF] | [F,,F,][A,CF] [F,,F,][A,CF] | [C,,C,] [B,CE][B,CE][B,CE] | %6
 [G,,G,][B,CE] [C,,C,][B,CE] | [F,,F,][A,CF]/[A,CF]/ [A,CF][A,CF] | [F,,F,][A,CF] [F,,F,][A,CF] | %9
 [C,,C,] [B,CE][B,CE][B,CE] | [G,,G,][B,CE] [C,,C,][B,CE] |1 [F,,F,][F,A,C] [F,A,C] z :|2 %12
 [F,,F,] z z2 |: [C,,C,][G,CE] [C,,C,][G,CE] | [C,,C,][G,CE] [C,,C,][G,CE] | %15
 [G,,,G,,][G,=B,DF] [G,,,G,,][G,B,DF] | [C,,C,][G,CE] [C,,C,][G,CE] | [C,,C,][G,CE] [C,,C,][G,CE] | %18
 [C,,C,][G,CE] [C,,C,][G,CE] | [G,,,C,][G,=B,D] [G,,,C,][G,B,D] | [C,,C,] C/C/ CC | %21
 [D,,D,][A,DF] [D,,D,][A,CF] | [F,,F,][A,CF]/[A,CF]/ [A,CF][A,CF] | [F,,F,][A,CF] [F,,F,][A,CF] | %24
 C,[CEG]/[CEG]/ [CEG][CEG] | CC/C/ CC | CC z2 | G,[B,CE] C,[B,CE] | [F,,F,][F,F][C,C][A,,A,] | %29
 [F,,F,][A,CF] [C,,C,][A,CF] | [F,,F,][A,CF]/[A,CF]/ [A,CF][A,CF] | [F,,F,][A,CF] [F,,F,][A,CF] | %32
 C,[CEG]/[CEG]/ [CEG][CEG] | CC/C/ CC | CC z2 | C,[B,CE] C,[B,CE] |1 [F,,F,][F,A,C] z2 :|2 %37
 [F,A,C] z [C,E,G,C][C,E,G,C] | [F,A,C] z [C,E,G,C][C,E,G,C] | [F,A,C][C,E,G,C] [F,A,C][C,E,G,C] | %40
 [F,A,C][F,,F,]/[F,,F,]/ [F,,F,][G,,F,] ||[K:Bb][M:2/4] [B,,,B,,][B,D]/[B,D]/ [B,D] z | %42
 [B,,,B,,][B,D]/[B,D]/ [B,D] z | B,,[B,DF] B,,[B,DF] | F,,[^G,=B,D] F,,[F,B,D] | %45
 F,,[A,C]/[A,C]/ [A,C] z | F,,[A,C]/[A,C]/ [A,C] z | [B,,F,][B,DF] [B,,F,][B,DF] | %48
 [B,,,B,,][F,B,D] [B,,,B,,][F,B,D] | [B,,,B,,][B,D]/[B,D]/ [B,D] z | %50
 [B,,,B,,][B,D]/[B,D]/ [B,D] z | B,,[B,DF] B,,[B,DF] | F,,[^G,=B,D] F,,[G,B,D] | %53
 F,,[A,C]/[A,C]/ [A,C] z | F,,[A,C]/[A,C]/ [A,C] z | [A,,A,][A,CF] [F,,F,][A,CF] |1 %56
 [B,,B,][F,,F,][B,,B,] z :|2 [B,,B,][F,,F,][B,,B,] z |: [D,,D,][D,D]/[D,D]/ [D,D][D,D] | %59
 [D,,D,][D,^F,A,]/[D,F,A,]/ [D,F,A,] z | F,,[G,B,D] G,,[G,B,D] | [D,,F,][D,^F,A,D] [D,F,A,D] z | %62
 [F,,F,][F,F]/[F,F]/ [F,F][F,F] | [F,,F,][F,A,C]/[F,A,C]/ [F,A,C] z | B,,[B,_DF] B,,[B,DF] | %65
 [F,,F,] z z2 | A,, [A,CF] [A,CF][A,CF] | F,,[F,A,C] F,,[F,A,C] | B,,[B,D]/[B,D]/ [B,D][B,D] | %69
 B,,[B,DF] B,,[B,DF] | A,, [A,CF] [A,CF][A,CF] | F,,[F,A,C] F,,[F,A,C] | %72
 B,,[B,D]/[B,D]/ [B,D][B,D] | B,,[B,DF] B,,[B,DF] | B,, [B,DF] [B,DF][B,DF] | %75
 [D,,D,] [B,DF] [B,DF][B,DF] | [E,,D,]E/E/ EE | E z !>![=E,G,B,_D] z | %78
 [F,,F,][B,DF] [F,,F,][B,DF] | [F,,F,][A,CF] [F,,F,][A,CF] | %80
 [B,,D,F,] z [F,,A,,C,F,][F,,A,,C,F,] |1 [B,,D,F,][B,,D,F,] [B,,D,F,] z :|2 %82
 [B,,D,F,][B,,D,F,] [B,,D,F,] z |] %83

